X:1
T:Title
%%score { ( 1 3 4 ) | ( 2 5 ) }
L:1/8
M:3/4
K:G
V:1 treble nm="Grand Piano"
V:3 treble 
V:4 treble 
V:2 bass 
V:5 bass 
V:1
 z2 z[Q:1/4=100] G FG | [Ec]3 B A>E | [B,=F]3 F EF | [=FB]3 A B>A |[M:3/8] [EG]3 | ccB | %6
[M:3/4] [=FA]3 A A>G | [D=F]3 A ^GA | [Fd]3 A B>c | [=Fd]4 z2 | c2 B2 A2 | A4 z2 | [EG]4 z2 | %13
 [D=F]2 [DF]4 | d2 d2 c2 | B4 z2 | G4 z2 | E2 z2 z2 | [ce]2 [Be]2 [Ae]2 | [Ge]4 z2 | %20
 [ce]2 [Be]2 [_Be]2 | [A=f]4 z2 | [Fd]2 [Fc]2 [FA]2 | [EA]4 z2 | [=FA][Ac] [Ge]2 [Fd]2 | %25
[M:3/8] [Ec]3 |] %26
V:2
 z2 z E ^DE | C,G, CE E>C | D,G, G,,D ^CD | G,,G,[K:treble] D=F G>E |[M:3/8][K:bass] C,G,C | EEG | %6
[M:3/4] =F,A, CC ^C>E | D,=F, A,[K:treble]=F FF | D,A,[K:treble] DF G>F | G,[K:bass]B, DG, G,G, | %10
 C,[E,G,] [E,G,C][E,G,] [E,G,C][E,G,] | G,,[E,G,] [E,G,][E,G,C] [E,G,C][E,G,C] | C,G, G,G, G,G, | %13
 .D,>^C G,G, G,G, | G,,G, [G,B,]G, [G,C]G, | G,,[G,B,] [G,B,][G,B,D] [G,B,D][G,B,D] | %16
 G,,G, G,[G,B,][K:treble] [G,B,=F][G,B,] | .[C,C]>D G,G, G,G, | C,E, [E,G,C][E,G,] [E,G,C]E, | %19
 C,E, E,E, E,E, | C,E, [E,G,C][E,G,] [E,G,C]E, | =F,,=F, F,F, C,A, | D,A, A,A, A,A, | %23
 G,,E, E,E ^DE | =F,D, G,A, B,G, |[M:3/8] [C,G,]3 |] %26
V:3
 x6 | x6 | x6 | x6 |[M:3/8] x3 | x3 |[M:3/4] x6 | x6 | x6 | x6 | z C z C z C | z C CB AE | %12
 z C C[CEA] [CEB][CEc] | z z/ E/ B,B, B,B, | z B, z B, z C | z D DA BA | z B, B,^G A=F | %17
 z z/ =F/ [EG]-[CE-G-] [CE-G-][CEG] | z [G,C] z C z [G,C] | z [G,C] [G,C][G,CEG] [G,C^DF][G,CEG] | %20
 z [G,C] z C z [G,C] | z [A,C] [A,C][A,C=FA] [Ge][^CGA] | z [CD] [CD][CD] [CD][CD] | %23
 z [G,C] [G,C]G FG | x6 |[M:3/8] x3 |] %26
V:4
 x6 | x6 | x6 | x6 |[M:3/8] x3 | x3 |[M:3/4] x6 | x6 | x6 | x6 | x6 | x6 | x6 | z B, z2 z2 | x6 | %15
 x6 | x6 | z C .C2 z2 | x6 | x6 | x6 | x6 | x6 | x6 | x6 |[M:3/8] x3 |] %26
V:5
 x6 | x6 | x6 | x2[K:treble] x4 |[M:3/8][K:bass] x3 | x3 |[M:3/4] x6 | x3[K:treble] x3 | %8
 x2[K:treble] x4 | x[K:bass] x5 | x6 | x6 | x6 | z G, z2 z2 | x6 | x6 | x4[K:treble] x2 | %17
 z G, z2 z2 | x6 | x6 | x6 | x6 | x6 | x6 | x6 |[M:3/8] x3 |] %26

